svgs/light/axe.svg

<svg xmlns="http://www.w3.org/2000/svg" viewBox="0 0 640 512"><!-- Font Awesome Pro 6.0.0-alpha2 by @fontawesome - https://fontawesome.com License - https://fontawesome.com/license (Commercial License) --><path d="M66 480L32 446L255 223L232.375 200.375L9.375 423.375C-3.125 435.875 -3.125 456.25 9.375 468.75L43.25 502.625C49.5 508.875 57.75 512 66 512C74.125 512 82.375 508.875 88.625 502.625L311.625 279.625L289 257L66 480ZM525.75 160L478.5 112.75L502.625 88.625C515.125 76.125 515.125 55.75 502.625 43.25L468.75 9.375C462.5 3.125 454.25 0 446 0C437.875 0 429.625 3.125 423.375 9.375L399.25 33.5L375.125 9.375C368.875 3.125 360.625 0 352.5 0C344.25 0 336.125 3.125 329.875 9.375L233.375 105.875C220.875 118.375 220.875 138.625 233.375 151.125L384 301.75V416H416C539.75 416 640 315.75 640 192V160H525.75ZM446 32L480 66L455.875 90.125L421.875 56.125L446 32ZM416 384V288.5L256 128.5L352.5 32L512.5 192H608C608 297.875 521.875 384 416 384Z"/></svg>

<svg xmlns="http://www.w3.org/2000/svg" viewBox="0 0 640 512"><!--! Font Awesome Pro 6.3.0 by @fontawesome - https://fontawesome.com License - https://fontawesome.com/license (Commercial License) Copyright 2023 Fonticons, Inc. --><path d="M65.1 480L32 446L255 223L232.4 200.4l-223 223c-12.5 12.5-12.5 32.88 0 45.38l33.88 33.88C49.5 508.9 57.75 512 65.1 512c8.125 0 16.38-3.125 22.63-9.375l223-223L289 257L65.1 480zM525.7 160L478.5 112.8l24.12-24.12c12.5-12.5 12.5-32.88 0-45.38l-33.88-33.88C462.5 3.125 454.3 0 445.1 0c-8.125 0-16.37 3.125-22.62 9.375L399.3 33.5l-24.13-24.12c-6.25-6.25-14.5-9.375-22.63-9.375c-8.25 0-16.38 3.125-22.63 9.375L233.4 105.9C220.9 118.4 220.9 138.6 233.4 151.1l150.6 150.6L384 416l31.1-.0032C539.7 416 640 315.8 640 192V160L525.7 160zM445.1 32L480 66l-24.12 24.12l-34-34L445.1 32zM416 384V288.5l-160-160L352.5 32l160 160H608C608 297.9 521.9 384 416 384z"/></svg>
